X:1
T:Joe Cormier's
M:4/4
L:1/8
R:reel
K:Amix
|:AB|c2 Bc Afed|cAce agef|g2 fa geef|gedB GABG|
c2 Bc Afed|cAce agef|gedB Gfed|cABc A2:|
|:z2|ABcd efec|ABcd ge (3cBA|GABc dedB|GABc dBAG|
ABcd eaaf|geaf geef|gedB Gfed|cABc A2:|
|:z2|A2 aA AgAA|fAAe-edef|~g2 fa geef|gedB GABG|
A2 aA AgAA|fAAe-edef|gedB Gfed|cABc A2:|
